logos/new-relic.svg

<?xml version="1.0" encoding="UTF-8"?>
<svg width="512px" height="102px" viewBox="0 0 512 102" version="1.1" xmlns="http://www.w3.org/2000/svg" preserveAspectRatio="xMidYMid">
    <title>New Relic</title>
    <g>
        <g>
            <polygon fill="#00AC69" points="71.059452 35.1686451 71.059452 66.4261125 43.9943581 82.0580416 43.9943581 101.594758 87.9887162 76.1976659 87.9887162 25.3970917"></polygon>
            <polygon fill="#1CE783" points="43.9943581 19.5431068 71.059452 35.1686451 87.9887162 25.3970917 87.9887162 25.3970917 43.9943581 0 0 25.3970917 0 25.3970917 16.9228734 35.1686451"></polygon>
            <polygon fill="#1D252C" points="27.0714847 60.5721276 27.0714847 91.829595 43.9943581 101.594758 43.9943581 50.8005742 -1.81637836e-14 25.3970917 -1.81637836e-14 44.9401985"></polygon>
        </g>
        <path d="M148.37551,25.3267927 C144.070426,25.3267927 140.795266,26.5627021 138.503216,27.9109668 L138.166776,28.1139087 C138.11193,28.147826 138.057696,28.1817784 138.004075,28.2157484 L137.689689,28.4196383 L137.689689,28.4196383 L137.389962,28.6231069 L137.389962,28.6231069 L137.104859,28.8253115 C137.058559,28.8588601 137.012866,28.8923209 136.96778,28.9256764 L136.704547,29.124405 L136.704547,29.124405 L136.455849,29.319763 L136.455849,29.319763 L136.109981,29.6046366 L136.109981,29.6046366 L135.89747,29.7878812 L135.89747,29.7878812 L135.605717,30.0506348 L135.605717,30.0506348 L135.346275,30.2963245 L135.346275,30.2963245 L135.119025,30.5221061 L135.119025,30.5221061 L134.865898,30.7872649 L134.865898,30.7872649 L134.629245,31.0515634 L134.629245,31.0515634 L134.417974,31.3085939 L134.417974,31.3085939 L133.919491,31.3085939 L132.928915,26.3237596 L121.457405,26.3237596 L121.457405,77.1690695 L133.919491,77.1690695 L133.919491,47.7713287 C133.919491,41.2910441 138.39306,36.8046933 144.886126,36.8046933 C151.379192,36.8046933 155.852762,41.2782625 155.852762,47.7713287 L155.852762,77.1690695 L168.314847,77.1690695 L168.314847,46.7615802 C168.314847,33.801011 159.840629,25.3267927 148.37551,25.3267927 Z M282.774312,59.7221494 L282.058541,59.7221494 L273.584323,26.3237596 L260.904949,26.3237596 L252.430731,59.7221494 L251.721351,59.7221494 L243.240741,26.3237596 L230.280172,26.3237596 L243.240741,77.1690695 L258.418923,77.1690695 L266.88675,44.2691631 L267.602521,44.2691631 L276.07674,77.1690695 L291.24853,77.1690695 L304.209099,26.3237596 L291.24853,26.3237596 L282.774312,59.7221494 Z M342.368645,30.8101105 L341.870162,30.8101105 L340.873195,26.3365412 L330.405043,26.3365412 L330.405043,77.1754603 L342.867129,77.1754603 L342.867129,47.7777195 C342.867129,41.2974349 345.858029,38.3065344 352.338314,38.3065344 L358.729127,38.3065344 L358.729127,26.3301504 L351.315784,26.3301504 C347.795862,26.3376712 344.483401,27.996268 342.368645,30.8101105 Z M386.305486,25.3267927 C371.357374,25.3267927 360.390738,36.2934282 360.390738,51.7464145 C360.390738,67.1994009 370.737465,78.1660363 386.305486,78.1660363 C393.870931,78.1660363 399.630331,75.494932 403.710687,72.1791736 L404.11313,71.845524 C404.443843,71.565817 404.762926,71.2821024 405.070452,70.9955528 L405.43394,70.6504075 C405.911206,70.1885995 406.358962,69.720735 406.777507,69.2516172 L407.085944,68.8996189 C407.136439,68.8409384 407.186479,68.782257 407.236064,68.7235842 L407.528123,68.3717254 C407.623661,68.2545234 407.717384,68.1374307 407.809299,68.0205224 L408.07962,67.6704256 L408.07962,67.6704256 L408.339114,67.3218852 L408.339114,67.3218852 L408.58781,66.9753517 L408.58781,66.9753517 L408.825736,66.6312754 C408.864494,66.5741591 408.902805,66.5171639 408.940668,66.4602993 L409.162491,66.120753 L409.162491,66.120753 L409.373614,65.7847897 L409.373614,65.7847897 L409.574066,65.4528596 C409.606587,65.397899 409.638664,65.3431253 409.670299,65.2885477 L398.230743,61.2112089 C397.099569,63.2818324 392.536529,67.263309 386.305486,67.263309 C379.039131,67.263309 373.849791,62.71305 372.852824,55.7598452 L410.731174,55.7598452 C411.081466,54.1218278 411.248653,52.4499572 411.229657,50.7750109 C411.229657,36.2934282 400.263022,25.3267927 386.305486,25.3267927 Z M372.852824,47.2600637 C374.348274,40.7797791 378.834625,35.7949448 386.305486,35.7949448 C393.290645,35.7949448 397.770605,40.7797791 398.767572,47.2600637 L372.852824,47.2600637 Z M202.20533,25.3267927 C187.250827,25.3267927 176.284191,36.2934282 176.284191,51.7464145 C176.284191,67.1994009 186.611746,78.1660363 202.20533,78.1660363 C209.518593,78.1660363 215.142059,75.6700378 219.192938,72.5085256 L219.606389,72.1791736 C220.150191,71.7370725 220.664152,71.2835109 221.148578,70.8232922 L221.506365,70.476955 C222.269593,69.7241785 222.955036,68.9569943 223.564014,68.1960138 L223.839656,67.8453076 C223.884693,67.786955 223.929279,67.7286578 223.973414,67.6704256 L224.232822,67.3218852 C224.275156,67.2639499 224.317042,67.2060982 224.358479,67.1483395 L224.601717,66.8029783 C224.64136,66.7456291 224.680556,66.6883916 224.719305,66.6312754 L224.946439,66.2901064 C224.983402,66.2335123 225.019919,66.177058 225.055991,66.120753 L225.267085,65.7847897 L225.267085,65.7847897 L225.467521,65.4528596 C225.500041,65.397899 225.532118,65.3431253 225.563752,65.2885477 L214.124196,61.2112089 C214.002378,61.4341991 213.840832,61.6793507 213.641745,61.9393043 L213.461957,62.165575 C213.084198,62.6246797 212.597952,63.1211049 212.014238,63.6177748 L211.71431,63.8659584 C209.558671,65.6009836 206.231542,67.263309 202.20533,67.263309 C194.938975,67.263309 189.743244,62.71305 188.746277,55.7598452 L226.631018,55.7598452 C226.98131,54.1218278 227.148497,52.4499572 227.129501,50.7750109 C227.129501,36.2934282 216.162866,25.3267927 202.20533,25.3267927 Z M188.746277,47.2600637 C190.241728,40.7797791 194.728078,35.7949448 202.20533,35.7949448 C209.184098,35.7949448 213.670449,40.7797791 214.667416,47.2600637 L188.746277,47.2600637 Z M442.333745,6.25021532 L454.795831,6.25021532 L454.795831,18.7123011 L442.333745,18.7123011 L442.333745,6.25021532 Z M489.184797,66.7009174 C481.707545,66.7009174 475.725744,60.7191163 475.725744,51.7464145 C475.725744,42.7737128 481.707545,36.7919116 489.184797,36.7919116 C494.485127,36.7919116 497.53114,39.296709 499.210611,41.8205301 L499.385365,42.0908991 C499.413633,42.135935 499.441475,42.1809486 499.468897,42.2259259 L499.628419,42.4952393 C499.654178,42.5400143 499.679527,42.5847247 499.704471,42.6293561 L499.849307,42.8960853 L499.849307,42.8960853 L499.984655,43.1602425 L499.984655,43.1602425 L500.110758,43.4211481 L500.110758,43.4211481 L500.227859,43.6781227 C500.246639,43.7205865 500.265054,43.7628582 500.283109,43.8049237 L500.387162,44.054728 C500.403798,44.0959118 500.420084,44.1368611 500.436025,44.1775616 L500.527575,44.418667 L500.527575,44.418667 L500.611093,44.6531237 C500.624357,44.691608 500.637296,44.729787 500.649916,44.7676465 L511.936092,40.7542158 L511.767185,40.3268082 L511.767185,40.3268082 L511.588612,39.8969143 L511.588612,39.8969143 L511.400247,39.4649927 C508.371838,32.6847328 501.69213,25.3267927 489.184797,25.3267927 C474.230294,25.3267927 463.263658,36.2934282 463.263658,51.7464145 C463.263658,67.1994009 474.230294,78.1660363 489.184797,78.1660363 C501.531848,78.1660363 508.199256,71.0042763 511.277128,64.0658074 L511.472792,63.613691 C511.536331,63.4631417 511.598195,63.3127737 511.658405,63.162663 L511.834099,62.7131786 C511.891024,62.5636583 511.946317,62.4144712 512,62.2656931 L500.649916,58.2266991 L500.571366,58.4911056 L500.571366,58.4911056 L500.485105,58.7605126 L500.485105,58.7605126 L500.390899,59.0343124 C500.374523,59.080278 500.357806,59.1264013 500.340744,59.1726698 L500.234183,59.4519198 C500.215719,59.4987178 500.196899,59.5456356 500.17772,59.5926606 L500.058278,59.8759939 L500.058278,59.8759939 L499.929958,60.1612899 L499.929958,60.1612899 L499.792524,60.4479413 C499.768846,60.4957957 499.744779,60.5436813 499.720317,60.5915853 L499.568776,60.8791304 C499.542718,60.9270579 499.516255,60.9749785 499.489384,61.0228796 L499.32321,61.3099515 C497.668673,64.0807639 494.605804,66.7009174 489.184797,66.7009174 Z M412.610073,17.3254946 L419.684703,17.3254946 L419.684703,77.1690695 L432.146789,77.1690695 L432.146789,6.25021532 L412.610073,6.25021532 L412.610073,17.3254946 Z M442.333745,26.3237596 L454.795831,26.3237596 L454.795831,77.1690695 L442.333745,77.1690695 L442.333745,26.3237596 Z" fill="#1D252C"></path>
    </g>
</svg>

<svg preserveAspectRatio="xMidYMid" viewBox="0 0 512 102" xmlns="http://www.w3.org/2000/svg">
  <path fill="#00AC69" d="M71.06 35.169v31.257L43.993 82.058v19.537L87.99 76.198v-50.8z"/>
  <path fill="#1CE783" d="M43.994 19.543 71.06 35.17l16.93-9.772L43.994 0 0 25.397l16.923 9.772z"/>
  <path fill="#1D252C" d="M27.071 60.572V91.83l16.923 9.765V50.8L0 25.397V44.94z"/>
  <path fill="#1D252C" d="M148.376 25.327c-4.306 0-7.58 1.236-9.873 2.584l-.336.203-.163.102-.314.204-.3.203-.285.202-.137.1-.263.2-.25.195-.345.285-.213.183-.291.263-.26.245-.227.226-.253.265-.237.265-.211.257h-.499l-.99-4.985h-11.472v50.845h12.462V47.771c0-6.48 4.474-10.966 10.967-10.966s10.967 4.473 10.967 10.966V77.17h12.462V46.762c0-12.961-8.474-21.435-19.94-21.435Zm134.398 34.395h-.715l-8.475-33.398h-12.68l-8.473 33.398h-.71l-8.48-33.398h-12.96l12.96 50.845h15.178l8.468-32.9h.716l8.474 32.9h15.172l12.96-50.845h-12.96l-8.475 33.398ZM342.37 30.81h-.499l-.997-4.473h-10.468v50.838h12.462V47.778c0-6.48 2.991-9.471 9.471-9.471h6.391V26.33h-7.413a11.222 11.222 0 0 0-8.947 4.48Zm43.936-5.483c-14.948 0-25.914 10.966-25.914 26.42 0 15.452 10.346 26.419 25.914 26.419 7.566 0 13.325-2.671 17.406-5.987l.402-.333c.33-.28.65-.564.957-.85l.364-.346c.477-.461.925-.93 1.344-1.398l.308-.352.15-.176.292-.352c.096-.117.19-.235.281-.351l.27-.35.26-.35.249-.346.238-.344.115-.17.221-.34.212-.336.2-.332.096-.164-11.44-4.078c-1.13 2.07-5.693 6.052-11.925 6.052-7.266 0-12.455-4.55-13.452-11.503h37.878c.35-1.638.518-3.31.499-4.985 0-14.482-10.967-25.448-24.925-25.448ZM372.853 47.26c1.495-6.48 5.982-11.465 13.452-11.465 6.986 0 11.466 4.985 12.463 11.465h-25.915ZM202.205 25.327c-14.954 0-25.92 10.966-25.92 26.42 0 15.452 10.327 26.419 25.92 26.419 7.314 0 12.937-2.496 16.988-5.657l.413-.33a26.621 26.621 0 0 0 1.543-1.356l.357-.346a26.214 26.214 0 0 0 2.058-2.281l.276-.35c.045-.059.09-.117.133-.176l.26-.348.125-.174.244-.345c.04-.057.079-.115.117-.172l.227-.34.11-.17.211-.336.2-.332.097-.164-11.44-4.078a5.765 5.765 0 0 1-.482.728l-.18.227c-.378.459-.864.955-1.448 1.452l-.3.248c-2.155 1.735-5.482 3.397-9.509 3.397-7.266 0-12.462-4.55-13.459-11.503h37.885c.35-1.638.517-3.31.499-4.985 0-14.482-10.967-25.448-24.925-25.448ZM188.746 47.26c1.496-6.48 5.982-11.465 13.46-11.465 6.978 0 11.464 4.985 12.461 11.465h-25.92ZM442.334 6.25h12.462v12.462h-12.462V6.25Zm46.85 60.45c-7.476 0-13.458-5.98-13.458-14.954 0-8.972 5.982-14.954 13.459-14.954 5.3 0 8.346 2.505 10.026 5.029l.174.27.084.135.16.27.075.133.145.267.136.264.126.261.117.257.055.127.104.25.049.123.092.24.083.235.039.115 11.286-4.014-.169-.427-.178-.43-.189-.432c-3.028-6.78-9.708-14.138-22.215-14.138-14.955 0-25.921 10.966-25.921 26.42 0 15.452 10.966 26.419 25.92 26.419 12.348 0 19.015-7.162 22.093-14.1l.196-.452c.063-.15.125-.301.185-.451l.176-.45c.057-.15.112-.299.166-.447l-11.35-4.04-.079.265-.086.27-.094.273-.05.139-.107.279-.056.14-.12.284-.128.285-.137.287-.073.144-.151.287-.08.144-.166.287c-1.654 2.77-4.717 5.39-10.138 5.39ZM412.61 17.326h7.075V77.17h12.462V6.25H412.61v11.075Zm29.724 8.999h12.462V77.17h-12.462V26.324Z"/>
</svg>
